X: 1294
T: Johnny with the Queer Thing
R:Reel
N:Collected by F. O'Neill
B:O'Neill's 1294
Z:Transcribed by Trish O'Neil
M:C|
L:1/8
K:D
dfed BcdB|AD (3FED FAAB|defdB2(dB)|ABdf gfef|
dfed BcdB|AD(3FED (FA)A2|defdB2(dB)|ABdfe2d2||
faag fddf|gfga beeg|faaf gedB|ABdfe2d2|
faag fddf|gfga bgeg|faaf gedB|ABdf gfef|]


